hero/outline/document-magnifying-glass.svg

<svg width="24" height="24" viewBox="0 0 24 24" fill="none" xmlns="http://www.w3.org/2000/svg">
<path d="M19.5 14.25V11.625C19.5 9.76104 17.989 8.25 16.125 8.25H14.625C14.0037 8.25 13.5 7.74632 13.5 7.125V5.625C13.5 3.76104 11.989 2.25 10.125 2.25H8.25M13.4812 15.7312L15 17.25M10.5 2.25H5.625C5.00368 2.25 4.5 2.75368 4.5 3.375V19.875C4.5 20.4963 5.00368 21 5.625 21H18.375C18.9963 21 19.5 20.4963 19.5 19.875V11.25C19.5 6.27944 15.4706 2.25 10.5 2.25ZM14.25 13.875C14.25 15.3247 13.0747 16.5 11.625 16.5C10.1753 16.5 9 15.3247 9 13.875C9 12.4253 10.1753 11.25 11.625 11.25C13.0747 11.25 14.25 12.4253 14.25 13.875Z" stroke="#0F172A" stroke-width="1.5" stroke-linecap="round" stroke-linejoin="round"/>
</svg>

<svg viewBox="0 0 24 24" xmlns="http://www.w3.org/2000/svg"><path fill="none" stroke="#000" stroke-linecap="round" stroke-linejoin="round" stroke-width="1.5" d="M19.5 14.25v-2.625 0c0-1.87-1.52-3.375-3.375-3.375h-1.5v0c-.63 0-1.125-.51-1.125-1.125v-1.5 0c0-1.87-1.52-3.38-3.375-3.38H8.25m5.23 13.481l1.51 1.51m-4.5-15H5.615c-.63 0-1.125.504-1.125 1.125v16.5c0 .62.5 1.125 1.125 1.125h12.75c.62 0 1.125-.51 1.125-1.125v-8.625 0c0-4.98-4.03-9-9-9Zm3.75 11.625v0c0 1.44-1.18 2.625-2.625 2.625 -1.45 0-2.625-1.18-2.625-2.625v0c0-1.45 1.17-2.625 2.625-2.625 1.44 0 2.625 1.17 2.625 2.625Z"/></svg>
